config/_h5ai/public/images/ui/preview-no-fullscreen.svg

<svg xmlns:svg="http://www.w3.org/2000/svg" xmlns="http://www.w3.org/2000/svg" width="24" height="24" viewBox="0 0 24 24" version="1.1">
  <path d="M5 16h3v3h2v-5h-5v2zm3-8h-3v2h5v-5h-2v3zm6 11h2v-3h3v-2h-5v5zm2-11v-3h-2v5h5v-2h-3z" fill="#fff"/>
</svg>

<svg width="24" height="24" viewBox="0 0 24 24" fill="none" xmlns="http://www.w3.org/2000/svg">
<path d="M5 16H8V19H10V14H5V16ZM8 8H5V10H10V5H8V8ZM14 19H16V16H19V14H14V19ZM16 8V5H14V10H19V8H16Z" fill="#DCE0E8"/>
</svg>
